Newaita-dark/apps/48/mailspring.svg

<svg height="48pt" viewBox="0 0 48 48" width="48pt" xmlns="http://www.w3.org/2000/svg" xmlns:xlink="http://www.w3.org/1999/xlink"><linearGradient id="a" gradientUnits="userSpaceOnUse" x1="23.81478" x2="23.81478" y1="38.0817745" y2="40.06634050005"><stop offset="0" stop-opacity=".27451"/><stop offset="1" stop-opacity="0"/></linearGradient><linearGradient id="b"><stop offset="0" stop-opacity=".313725"/><stop offset=".222222" stop-opacity=".27451"/><stop offset="1" stop-opacity="0"/></linearGradient><radialGradient id="c" cx="450.908936" cy="189.579361" gradientTransform="matrix(.00000026 -.117199 -.210958 -.00000015 79.684395 91.423869)" gradientUnits="userSpaceOnUse" r="21.166656" xlink:href="#b"/><radialGradient id="d" cx="450.908936" cy="189.579361" gradientTransform="matrix(-.00000026 .117199 .210958 .00000015 -31.80678 -15.260348)" gradientUnits="userSpaceOnUse" r="21.166656" xlink:href="#b"/><radialGradient id="e" cx="450.908936" cy="189.579361" gradientTransform="matrix(-.00000026 -.117199 .210958 -.00000015 -31.80678 91.423869)" gradientUnits="userSpaceOnUse" r="21.166656" xlink:href="#b"/><radialGradient id="f" cx="450.908936" cy="189.579361" gradientTransform="matrix(.00000026 .117199 -.210958 .00000015 79.684393 -15.260349)" gradientUnits="userSpaceOnUse" r="21.166656" xlink:href="#b"/><linearGradient id="g" gradientUnits="userSpaceOnUse" x1="23.814816" x2="23.814816" y1="38.08182980616" y2="8.31330829293"><stop offset="0" stop-color="#26a69a"/><stop offset="1" stop-color="#4db6ac"/></linearGradient><path d="m7.691406 38.082031h32.496094v1.984375h-32.496094zm0 0" fill="url(#a)"/><path d="m40.1875 38.082031h3.96875v-1.984375h-3.96875zm0 0" fill="url(#c)"/><path d="m7.691406 38.082031h-3.96875v1.984375h3.96875zm0 0" fill="url(#d)"/><path d="m7.691406 38.082031h-3.96875v-1.984375h3.96875zm0 0" fill="url(#e)"/><path d="m40.1875 38.082031h3.96875v1.984375h-3.96875zm0 0" fill="url(#f)"/><path d="m5.457031 8.3125c-.824219 0-1.488281.664062-1.488281 1.488281v1.488281l18.320312 11.910157c1.03125.742187 2.023438.742187 3.050782 0l18.320312-11.910157v-1.488281c0-.824219-.664062-1.488281-1.488281-1.488281zm-1.488281 4.464844v23.816406c0 .824219.664062 1.488281 1.488281 1.488281h36.714844c.824219 0 1.488281-.664062 1.488281-1.488281v-23.816406l-18.320312 11.910156c-1.027344.742188-2.019532.742188-3.050782 0zm0 0" fill="url(#g)"/><path d="m5.457031 8.3125c-.824219 0-1.488281.664062-1.488281 1.488281v.496094c0-.824219.664062-1.488281 1.488281-1.488281h36.714844c.824219 0 1.488281.664062 1.488281 1.488281v-.496094c0-.824219-.664062-1.488281-1.488281-1.488281zm-1.488281 4.464844v.496094l18.320312 11.910156c1.03125.742187 2.023438.742187 3.050782 0l18.320312-11.910156v-.496094l-18.320312 11.910156c-1.027344.742188-2.019532.742188-3.050782 0zm0 0" fill="#fff" fill-opacity=".392157"/><path d="m42.171875 38.082031c.824219 0 1.488281-.664062 1.488281-1.488281v-.496094c0 .824219-.664062 1.488282-1.488281 1.488282h-36.714844c-.824219 0-1.488281-.664063-1.488281-1.488282v.496094c0 .824219.664062 1.488281 1.488281 1.488281zm0 0" fill-opacity=".235294"/><path d="m5.457031 8.171875c-.898437 0-1.628906.730469-1.628906 1.628906v1.566407l18.382813 11.949218-.003907-.003906c.53125.382812 1.066407.582031 1.609375.582031.539063 0 1.074219-.199219 1.605469-.582031l-.003906.003906 18.382812-11.949218v-1.566407c0-.898437-.730469-1.628906-1.628906-1.628906zm0 .28125h36.714844c.75 0 1.347656.597656 1.347656 1.347656v1.414063l-18.257812 11.867187h-.003907c-.496093.359375-.972656.53125-1.441406.53125-.472656 0-.949218-.171875-1.445312-.53125h-.003906l-18.257813-11.867187v-1.414063c0-.75.597656-1.347656 1.347656-1.347656zm-1.628906 4.066406v24.074219c0 .898438.730469 1.628906 1.628906 1.628906h36.714844c.898437 0 1.628906-.730468 1.628906-1.628906v-24.074219l-18.539062 12.050781h-.003907c-.496093.359376-.972656.53125-1.441406.53125-.472656 0-.949218-.171874-1.445312-.53125h-.003906zm.28125.519531 18.101563 11.765626-.003907-.003907c.53125.382813 1.066407.582031 1.609375.582031.539063 0 1.074219-.199218 1.605469-.582031l-.003906.003907 18.101562-11.765626v23.554688c0 .75-.597656 1.347656-1.347656 1.347656h-36.714844c-.75 0-1.347656-.597656-1.347656-1.347656zm0 0" fill="#212121"/></svg>

<?xml version="1.0" encoding="UTF-8"?>
<svg xmlns="http://www.w3.org/2000/svg" xmlns:xlink="http://www.w3.org/1999/xlink" width="48pt" height="48pt" viewBox="0 0 48 48" version="1.1">
<defs>
<linearGradient id="linear0" gradientUnits="userSpaceOnUse" x1="254" y1="233.5" x2="254" y2="254.666672" gradientTransform="matrix(0.093759,0,0,0.093759,-0.00000572259,16.189048)">
<stop offset="0" style="stop-color:rgb(0%,0%,0%);stop-opacity:0.27451;"/>
<stop offset="1" style="stop-color:rgb(0%,0%,0%);stop-opacity:0;"/>
</linearGradient>
<radialGradient id="radial0" gradientUnits="userSpaceOnUse" cx="450.908936" cy="189.579361" fx="450.908936" fy="189.579361" r="21.166656" gradientTransform="matrix(0.000000261256,-0.117199,-0.210958,-0.000000152308,79.684395,91.423869)">
<stop offset="0" style="stop-color:rgb(0%,0%,0%);stop-opacity:0.313725;"/>
<stop offset="0.222222" style="stop-color:rgb(0%,0%,0%);stop-opacity:0.27451;"/>
<stop offset="1" style="stop-color:rgb(0%,0%,0%);stop-opacity:0;"/>
</radialGradient>
<radialGradient id="radial1" gradientUnits="userSpaceOnUse" cx="450.908936" cy="189.579361" fx="450.908936" fy="189.579361" r="21.166656" gradientTransform="matrix(-0.000000261256,0.117199,0.210958,0.000000152308,-31.80678,-15.260348)">
<stop offset="0" style="stop-color:rgb(0%,0%,0%);stop-opacity:0.313725;"/>
<stop offset="0.222222" style="stop-color:rgb(0%,0%,0%);stop-opacity:0.27451;"/>
<stop offset="1" style="stop-color:rgb(0%,0%,0%);stop-opacity:0;"/>
</radialGradient>
<radialGradient id="radial2" gradientUnits="userSpaceOnUse" cx="450.908936" cy="189.579361" fx="450.908936" fy="189.579361" r="21.166656" gradientTransform="matrix(-0.000000261256,-0.117199,0.210958,-0.000000152308,-31.80678,91.423869)">
<stop offset="0" style="stop-color:rgb(0%,0%,0%);stop-opacity:0.313725;"/>
<stop offset="0.222222" style="stop-color:rgb(0%,0%,0%);stop-opacity:0.27451;"/>
<stop offset="1" style="stop-color:rgb(0%,0%,0%);stop-opacity:0;"/>
</radialGradient>
<radialGradient id="radial3" gradientUnits="userSpaceOnUse" cx="450.908936" cy="189.579361" fx="450.908936" fy="189.579361" r="21.166656" gradientTransform="matrix(0.000000261256,0.117199,-0.210958,0.000000152308,79.684393,-15.260349)">
<stop offset="0" style="stop-color:rgb(0%,0%,0%);stop-opacity:0.313725;"/>
<stop offset="0.222222" style="stop-color:rgb(0%,0%,0%);stop-opacity:0.27451;"/>
<stop offset="1" style="stop-color:rgb(0%,0%,0%);stop-opacity:0;"/>
</radialGradient>
<linearGradient id="linear1" gradientUnits="userSpaceOnUse" x1="960" y1="1535.118164" x2="960" y2="335.118103" gradientTransform="matrix(0.0248071,0,0,0.0248071,0,0)">
<stop offset="0" style="stop-color:rgb(14.901961%,65.098039%,60.392157%);stop-opacity:1;"/>
<stop offset="1" style="stop-color:rgb(30.196078%,71.372549%,67.45098%);stop-opacity:1;"/>
</linearGradient>
</defs>
<g id="surface1">
<path style=" stroke:none;fill-rule:nonzero;fill:url(#linear0);" d="M 7.691406 38.082031 L 40.1875 38.082031 L 40.1875 40.066406 L 7.691406 40.066406 Z M 7.691406 38.082031 "/>
<path style=" stroke:none;fill-rule:nonzero;fill:url(#radial0);" d="M 40.1875 38.082031 L 44.15625 38.082031 L 44.15625 36.097656 L 40.1875 36.097656 Z M 40.1875 38.082031 "/>
<path style=" stroke:none;fill-rule:nonzero;fill:url(#radial1);" d="M 7.691406 38.082031 L 3.722656 38.082031 L 3.722656 40.066406 L 7.691406 40.066406 Z M 7.691406 38.082031 "/>
<path style=" stroke:none;fill-rule:nonzero;fill:url(#radial2);" d="M 7.691406 38.082031 L 3.722656 38.082031 L 3.722656 36.097656 L 7.691406 36.097656 Z M 7.691406 38.082031 "/>
<path style=" stroke:none;fill-rule:nonzero;fill:url(#radial3);" d="M 40.1875 38.082031 L 44.15625 38.082031 L 44.15625 40.066406 L 40.1875 40.066406 Z M 40.1875 38.082031 "/>
<path style=" stroke:none;fill-rule:nonzero;fill:url(#linear1);" d="M 5.457031 8.3125 C 4.632812 8.3125 3.96875 8.976562 3.96875 9.800781 L 3.96875 11.289062 L 22.289062 23.199219 C 23.320312 23.941406 24.3125 23.941406 25.339844 23.199219 L 43.660156 11.289062 L 43.660156 9.800781 C 43.660156 8.976562 42.996094 8.3125 42.171875 8.3125 Z M 3.96875 12.777344 L 3.96875 36.59375 C 3.96875 37.417969 4.632812 38.082031 5.457031 38.082031 L 42.171875 38.082031 C 42.996094 38.082031 43.660156 37.417969 43.660156 36.59375 L 43.660156 12.777344 L 25.339844 24.6875 C 24.3125 25.429688 23.320312 25.429688 22.289062 24.6875 Z M 3.96875 12.777344 "/>
<path style=" stroke:none;fill-rule:nonzero;fill:rgb(100%,100%,100%);fill-opacity:0.392157;" d="M 5.457031 8.3125 C 4.632812 8.3125 3.96875 8.976562 3.96875 9.800781 L 3.96875 10.296875 C 3.96875 9.472656 4.632812 8.808594 5.457031 8.808594 L 42.171875 8.808594 C 42.996094 8.808594 43.660156 9.472656 43.660156 10.296875 L 43.660156 9.800781 C 43.660156 8.976562 42.996094 8.3125 42.171875 8.3125 Z M 3.96875 12.777344 L 3.96875 13.273438 L 22.289062 25.183594 C 23.320312 25.925781 24.3125 25.925781 25.339844 25.183594 L 43.660156 13.273438 L 43.660156 12.777344 L 25.339844 24.6875 C 24.3125 25.429688 23.320312 25.429688 22.289062 24.6875 Z M 3.96875 12.777344 "/>
<path style=" stroke:none;fill-rule:nonzero;fill:rgb(0%,0%,0%);fill-opacity:0.235294;" d="M 42.171875 38.082031 C 42.996094 38.082031 43.660156 37.417969 43.660156 36.59375 L 43.660156 36.097656 C 43.660156 36.921875 42.996094 37.585938 42.171875 37.585938 L 5.457031 37.585938 C 4.632812 37.585938 3.96875 36.921875 3.96875 36.097656 L 3.96875 36.59375 C 3.96875 37.417969 4.632812 38.082031 5.457031 38.082031 Z M 42.171875 38.082031 "/>
<path style=" stroke:none;fill-rule:nonzero;fill:rgb(12.941177%,12.941177%,12.941177%);fill-opacity:1;" d="M 5.457031 8.171875 C 4.558594 8.171875 3.828125 8.902344 3.828125 9.800781 L 3.828125 11.367188 L 22.210938 23.316406 L 22.207031 23.3125 C 22.738281 23.695312 23.273438 23.894531 23.816406 23.894531 C 24.355469 23.894531 24.890625 23.695312 25.421875 23.3125 L 25.417969 23.316406 L 43.800781 11.367188 L 43.800781 9.800781 C 43.800781 8.902344 43.070312 8.171875 42.171875 8.171875 Z M 5.457031 8.453125 L 42.171875 8.453125 C 42.921875 8.453125 43.519531 9.050781 43.519531 9.800781 L 43.519531 11.214844 L 25.261719 23.082031 L 25.257812 23.082031 C 24.761719 23.441406 24.285156 23.613281 23.816406 23.613281 C 23.34375 23.613281 22.867188 23.441406 22.371094 23.082031 L 22.367188 23.082031 L 4.109375 11.214844 L 4.109375 9.800781 C 4.109375 9.050781 4.707031 8.453125 5.457031 8.453125 Z M 3.828125 12.519531 L 3.828125 36.59375 C 3.828125 37.492188 4.558594 38.222656 5.457031 38.222656 L 42.171875 38.222656 C 43.070312 38.222656 43.800781 37.492188 43.800781 36.59375 L 43.800781 12.519531 L 25.261719 24.570312 L 25.257812 24.570312 C 24.761719 24.929688 24.285156 25.101562 23.816406 25.101562 C 23.34375 25.101562 22.867188 24.929688 22.371094 24.570312 L 22.367188 24.570312 Z M 4.109375 13.039062 L 22.210938 24.804688 L 22.207031 24.800781 C 22.738281 25.183594 23.273438 25.382812 23.816406 25.382812 C 24.355469 25.382812 24.890625 25.183594 25.421875 24.800781 L 25.417969 24.804688 L 43.519531 13.039062 L 43.519531 36.59375 C 43.519531 37.34375 42.921875 37.941406 42.171875 37.941406 L 5.457031 37.941406 C 4.707031 37.941406 4.109375 37.34375 4.109375 36.59375 Z M 4.109375 13.039062 "/>
</g>
</svg>
